dist/svg/u1F4B8.svg

<?xml version="1.0" encoding="UTF-8"?><svg id="a" xmlns="http://www.w3.org/2000/svg" viewBox="0 0 40 40"><rect width="40" height="40" fill="none"/><g><polygon points="37.409 17.718 5.721 25.418 5.721 22.303 37.409 14.603 37.409 17.718" fill="#03905a"/><rect x="7.116" y="12.717" width="28.904" height="17.862" rx="1.601" ry="1.601" transform="translate(-8.99 21.592) rotate(-45)" fill="#03905a"/><rect x="7.116" y="9.421" width="28.904" height="17.862" rx="1.601" ry="1.601" transform="translate(-6.66 20.626) rotate(-45)" fill="#4fc578"/><rect x="18.621" y="9.421" width="5.895" height="17.862" transform="translate(-6.66 20.626) rotate(-45)" fill="#7bd58f"/><g><path d="M36.459,26.782v10.269c0,.227-.184,.41-.41,.41h0c-1.552,0-2.811-1.258-2.811-2.811v-7.868h3.221Z" fill="#e5e8eb"/><path d="M28.341,26.782v7.341c0,.219-.178,.397-.397,.397h0c-1.502,0-2.72-1.218-2.72-2.72v-5.018h3.117Z" fill="#e5e8eb"/><path d="M36.459,26.782v3.869h-11.235v-3.869c0-3.103,2.515-5.618,5.618-5.618s5.618,2.515,5.618,5.618Z" fill="#e5e8eb"/><path d="M30.841,25.9c.89,0,1.612,.722,1.612,1.612v8.741c0,.227-.184,.41-.41,.41h0c-1.553,0-2.813-1.259-2.813-2.813v-6.339c0-.89,.722-1.612,1.612-1.612h0Z" fill="#e5e8eb"/></g><g><path d="M13.239,3.563H2.97c-.227,0-.41,.184-.41,.41h0c0,1.552,1.258,2.811,2.811,2.811h7.868V3.563Z" fill="#e5e8eb"/><path d="M13.239,11.681H5.898c-.219,0-.397,.178-.397,.397h0c0,1.502,1.218,2.72,2.72,2.72h5.018v-3.117Z" fill="#e5e8eb"/><path d="M13.239,3.563h-3.869V14.798h3.869c3.103,0,5.618-2.515,5.618-5.618s-2.515-5.618-5.618-5.618Z" fill="#e5e8eb"/><path d="M14.122,9.18c0-.89-.722-1.612-1.612-1.612H3.769c-.227,0-.41,.184-.41,.41h0c0,1.553,1.259,2.813,2.813,2.813h6.339c.89,0,1.612-.722,1.612-1.612h0Z" fill="#e5e8eb"/></g></g></svg>

<svg id="Layer_1" data-name="Layer 1" xmlns="http://www.w3.org/2000/svg" viewBox="0 0 40 40"><defs><style>.cls-1{fill:none;}.cls-2{fill:#03905a;}.cls-3{fill:#4fc578;}.cls-4{fill:#7bd58f;}.cls-5{fill:#e5e8eb;}</style></defs><rect class="cls-1" width="40" height="40"/><polygon class="cls-2" points="37.409 17.718 5.721 25.418 5.721 22.303 37.409 14.603 37.409 17.718"/><rect class="cls-2" x="7.116" y="12.717" width="28.904" height="17.862" rx="1.601" transform="translate(-8.99 21.592) rotate(-45)"/><rect class="cls-3" x="7.116" y="9.421" width="28.904" height="17.862" rx="1.601" transform="translate(-6.66 20.626) rotate(-45)"/><rect class="cls-4" x="18.621" y="9.421" width="5.895" height="17.862" transform="translate(-6.66 20.626) rotate(-45)"/><path class="cls-5" d="M36.459,26.782V37.051a.41.41,0,0,1-.41.41h0a2.811,2.811,0,0,1-2.811-2.81V26.782Z"/><path class="cls-5" d="M28.341,26.782v7.341a.4.4,0,0,1-.4.4h0a2.72,2.72,0,0,1-2.72-2.72V26.782Z"/><path class="cls-5" d="M36.459,26.782v3.869H25.224V26.782a5.618,5.618,0,0,1,11.235,0Z"/><path class="cls-5" d="M30.841,25.9a1.612,1.612,0,0,1,1.612,1.611v8.742a.411.411,0,0,1-.411.41h0A2.812,2.812,0,0,1,29.23,33.85V27.511A1.611,1.611,0,0,1,30.841,25.9Z"/><path class="cls-5" d="M13.239,3.563H2.97a.41.41,0,0,0-.41.41h0a2.811,2.811,0,0,0,2.811,2.81h7.868Z"/><path class="cls-5" d="M13.239,11.681H5.9a.4.4,0,0,0-.4.4h0A2.72,2.72,0,0,0,8.222,14.8h5.017Z"/><path class="cls-5" d="M13.239,3.563H9.37V14.8h3.869a5.618,5.618,0,1,0,0-11.235Z"/><path class="cls-5" d="M14.122,9.18A1.612,1.612,0,0,0,12.51,7.569H3.769a.409.409,0,0,0-.41.41h0a2.813,2.813,0,0,0,2.812,2.813H12.51A1.612,1.612,0,0,0,14.122,9.18Z"/></svg>
